X: 1
T:Fasten the Leg on Her
R:Jig
M:6/8
L:1/8
K:G
BAB BAB|GBd gdB|AGA AGA|Bee dBA|!
BAB BAB|GBd g2d|efg eag|fdd d3:|!
gag fgf|ege dBA|GFG AGA|Bee def|!
gAA fAA|ege dBd|efg eag|fdd d3:|!
